src/32x32/places/folder-gruvbox-mix-aqua-syncthing.svg

<svg xmlns="http://www.w3.org/2000/svg" width="32" height="32" version="1">
 <rect style="opacity:0.2" width="28" height="18" x="2" y="11" rx="1.4" ry="1.4"/>
 <path style="fill:#477a5b" d="M 2,22.6 C 2,23.376 2.6244,24 3.4,24 H 28.6 C 29.376,24 30,23.376 30,22.6 V 7.4 C 30,6.6244 29.376,6 28.6,6 H 16 C 13.9,6 13.2,3 11.1,3 H 3.4 C 2.6244,3 2,3.6244 2,4.4"/>
 <rect style="opacity:0.2" width="28" height="18" x="2" y="9" rx="1.4" ry="1.4"/>
 <rect style="fill:#DCE0BB" width="24" height="11" x="4" y="8" rx="1.4" ry="1.4"/>
 <rect style="fill:#8bba7f" width="28" height="18" x="2" y="10" rx="1.4" ry="1.4"/>
 <path style="opacity:0.1;fill:#DCE0BB" d="M 3.4004,3 C 2.6248,3 2,3.6248 2,4.4004 V 5.4004 C 2,4.6248 2.6248,4 3.4004,4 H 11.1 C 13.2,4 13.9,7 16,7 H 28.6 C 29.375,7 30,7.6248 30,8.4004 V 7.4004 C 30,6.6248 29.375,6 28.6,6 H 16 C 13.9,6 13.2,3 11.1,3 Z"/>
 <path style="fill:#39433D" d="m 16,13 c -3.313709,10e-7 -6,2.686291 -6,6 0,3.313708 2.686291,5.999999 6,6 3.313708,0 6,-2.686292 6,-6 0,-3.313709 -2.686292,-6 -6,-6 z m 0,0.75 c 2.899495,0 5.25,2.350504 5.25,5.25 0,2.899495 -2.350505,5.25 -5.25,5.25 -2.899495,-1e-6 -5.25,-2.350505 -5.25,-5.25 0,-2.899496 2.350505,-5.249999 5.25,-5.25 z"/>
 <path fill="none" stroke-width="1.143" style="stroke:#39433D;stroke-width:0.75" d="m 10.5,20.5 7,-1 4,-3"/>
 <path fill="none" stroke-width="1.143" style="stroke:#39433D;stroke-width:0.75" d="m 20.5,22.5 -3,-3"/>
 <circle style="fill:#39433D" cx="20.5" cy="22.5" r="1.5"/>
 <circle style="fill:#39433D" cx="21.5" cy="16.5" r="1.5"/>
 <circle style="fill:#39433D" cx="17.5" cy="19.5" r="1.5"/>
 <circle style="fill:#39433D" cx="10.5" cy="20.5" r="1.5"/>
</svg>

<?xml version="1.0" encoding="UTF-8"?>
<svg width="32" height="32" version="1" xmlns="http://www.w3.org/2000/svg">
 <rect x="2" y="11" width="28" height="18" rx="1.4" ry="1.4" opacity=".2"/>
 <path d="m2 22.6c0 0.776 0.6244 1.4 1.4 1.4h25.2c0.776 0 1.4-0.624 1.4-1.4v-15.2c0-0.7756-0.624-1.4-1.4-1.4h-12.6c-2.1 0-2.8-3-4.9-3h-7.7c-0.7756 0-1.4 0.6244-1.4 1.4" fill="#477a5b"/>
 <rect x="2" y="9" width="28" height="18" rx="1.4" ry="1.4" opacity=".2"/>
 <rect x="4" y="8" width="24" height="11" rx="1.4" ry="1.4" fill="#DCE0BB"/>
 <rect x="2" y="10" width="28" height="18" rx="1.4" ry="1.4" fill="#8bba7f"/>
 <path d="m3.4004 3c-0.7756 0-1.4004 0.6248-1.4004 1.4004v1c0-0.7756 0.6248-1.4004 1.4004-1.4004h7.6996c2.1 0 2.8 3 4.9 3h12.6c0.775 0 1.4 0.6248 1.4 1.4004v-1c0-0.7756-0.625-1.4004-1.4-1.4004h-12.6c-2.1 0-2.8-3-4.9-3z" fill="#DCE0BB" opacity=".1"/>
 <path d="m16 13c-3.3137 1e-6 -6 2.6863-6 6 0 3.3137 2.6863 6 6 6 3.3137 0 6-2.6863 6-6 0-3.3137-2.6863-6-6-6zm0 0.75c2.8995 0 5.25 2.3505 5.25 5.25 0 2.8995-2.3505 5.25-5.25 5.25-2.8995-1e-6 -5.25-2.3505-5.25-5.25 0-2.8995 2.3505-5.25 5.25-5.25z" fill="#39433D"/>
 <path d="m10.5 20.5 7-1 4-3" fill="none" stroke="#39433D" stroke-width=".75"/>
 <path d="m20.5 22.5-3-3" fill="none" stroke="#39433D" stroke-width=".75"/>
 <circle cx="20.5" cy="22.5" r="1.5" fill="#39433D"/>
 <circle cx="21.5" cy="16.5" r="1.5" fill="#39433D"/>
 <circle cx="17.5" cy="19.5" r="1.5" fill="#39433D"/>
 <circle cx="10.5" cy="20.5" r="1.5" fill="#39433D"/>
</svg>
